images/tiktok.svg

<svg width="96" height="34" viewBox="0 0 96 34" fill="none" xmlns="http://www.w3.org/2000/svg">
<g clip-path="url(#clip0_285_1110)">
<path d="M7.99435 13.6346V12.729C7.68409 12.6875 7.36866 12.6616 7.04288 12.6616C3.15947 12.6565 0 15.8186 0 19.7105C0 22.0963 1.18933 24.2079 3.00952 25.4862C1.8357 24.2286 1.11693 22.5362 1.11693 20.6834C1.11693 16.8485 4.1885 13.7226 7.99435 13.6346Z" fill="#25F4EE"/>
<path d="M8.16525 23.9028C9.89755 23.9028 11.3144 22.5211 11.3765 20.8029L11.3816 5.44758H14.1843C14.1274 5.13188 14.0964 4.80583 14.0964 4.47461H10.2698L10.2647 19.8299C10.2027 21.5481 8.78575 22.9299 7.0535 22.9299C6.51571 22.9299 6.00896 22.7953 5.55908 22.5573C6.13823 23.3698 7.0897 23.9028 8.16525 23.9028Z" fill="#25F4EE"/>
<path d="M19.4219 10.6579V9.80403C18.3516 9.80403 17.3587 9.48831 16.521 8.9397C17.2656 9.79366 18.2739 10.4147 19.4219 10.6579Z" fill="#25F4EE"/>
<path d="M16.5208 8.94182C15.7037 8.00511 15.2125 6.78372 15.2125 5.44849H14.1887C14.4524 6.90794 15.3212 8.16038 16.5208 8.94182Z" fill="#FE2C55"/>
<path d="M7.04741 16.486C5.27376 16.486 3.83105 17.9299 3.83105 19.705C3.83105 20.942 4.5343 22.0184 5.55816 22.5567C5.17551 22.0288 4.94799 21.3819 4.94799 20.678C4.94799 18.9029 6.39069 17.4589 8.16437 17.4589C8.4953 17.4589 8.81588 17.5158 9.1158 17.609V13.6965C8.80551 13.6551 8.49012 13.6292 8.16437 13.6292C8.10746 13.6292 8.05575 13.6343 7.99886 13.6343V16.636C7.69378 16.5429 7.37835 16.486 7.04741 16.486Z" fill="#FE2C55"/>
<path d="M19.4215 10.6599V13.6357C17.4359 13.6357 15.595 12.9992 14.0954 11.9227V19.7116C14.0954 23.5983 10.9359 26.7656 7.04733 26.7656C5.54774 26.7656 4.15158 26.2895 3.00879 25.4873C4.29636 26.8691 6.13206 27.7386 8.1643 27.7386C12.0477 27.7386 15.2123 24.5764 15.2123 20.6846V12.8957C16.7119 13.9722 18.5528 14.6087 20.5384 14.6087V10.779C20.1506 10.779 19.7783 10.7375 19.4215 10.6599Z" fill="#FE2C55"/>
<path d="M14.0954 19.7117V11.9228C15.595 12.9993 17.4359 13.6358 19.4215 13.6358V10.66C18.2736 10.4168 17.2652 9.79578 16.5206 8.94182C15.3209 8.16038 14.4574 6.90794 14.1833 5.44849H11.3806L11.3754 20.8037C11.3134 22.5219 9.89652 23.9038 8.1643 23.9038C7.0887 23.9038 6.14241 23.3707 5.55292 22.5633C4.52906 22.0199 3.82581 20.9487 3.82581 19.7117C3.82581 17.9366 5.26851 16.4926 7.04216 16.4926C7.3731 16.4926 7.69371 16.5496 7.99363 16.6427V13.641C4.18778 13.7238 1.11621 16.8497 1.11621 20.6847C1.11621 22.5374 1.83498 24.2247 3.00879 25.4874C4.15158 26.2896 5.54775 26.7657 7.04733 26.7657C10.9308 26.7657 14.0954 23.5984 14.0954 19.7117Z" fill="white"/>
<path d="M24.3237 10.6694H36.2843L35.188 14.0956H32.0854V26.7596H28.2175V14.0956L24.3289 14.1007L24.3237 10.6694Z" fill="white"/>
<path d="M55.8823 10.6694H68.1221L67.0258 14.0956H63.6492V26.7596H59.7761V14.0956L55.8875 14.1007L55.8823 10.6694Z" fill="white"/>
<path d="M37.02 15.7891H40.8517V26.7608H37.0407L37.02 15.7891Z" fill="white"/>
<path d="M42.3755 10.6282H46.2072V18.122L50.0027 14.3906H54.5739L49.7701 19.0536L55.1479 26.7596H50.9283L47.3396 21.4187L46.2021 22.521V26.7596H42.3704V10.6282H42.3755Z" fill="white"/>
<path d="M82.9683 10.6282H86.8006V18.122L90.5956 14.3906H95.167L90.3633 19.0536L95.7409 26.7596H91.5266L87.9379 21.4187L86.8006 22.521V26.7596H82.9683V10.6282Z" fill="white"/>
<path d="M38.9329 14.5366C39.9982 14.5366 40.8617 13.6723 40.8617 12.6062C40.8617 11.5401 39.9982 10.6758 38.9329 10.6758C37.8677 10.6758 37.0042 11.5401 37.0042 12.6062C37.0042 13.6723 37.8677 14.5366 38.9329 14.5366Z" fill="white"/>
<path d="M67.6313 20.1935C67.6313 16.7416 70.2944 13.9106 73.6814 13.6467C73.5107 13.6312 73.2781 13.626 73.1074 13.626C69.4825 13.626 66.5454 16.5656 66.5454 20.1935C66.5454 23.8214 69.4825 26.761 73.1074 26.761C73.2781 26.761 73.5107 26.7506 73.6814 26.7403C70.2996 26.4764 67.6313 23.6455 67.6313 20.1935Z" fill="#25F4EE"/>
<path d="M75.1707 13.626C74.9949 13.626 74.7621 13.6363 74.5916 13.6467C77.9733 13.9106 80.6364 16.7416 80.6364 20.1935C80.6364 23.6455 77.9733 26.4764 74.5916 26.7403C74.7621 26.7558 74.9949 26.761 75.1707 26.761C78.7955 26.761 81.7328 23.8214 81.7328 20.1935C81.7328 16.5656 78.7955 13.626 75.1707 13.626Z" fill="#FE2C55"/>
<path d="M74.1366 23.3867C72.3733 23.3867 70.9461 21.9583 70.9461 20.1935C70.9461 18.4287 72.3733 17.0003 74.1366 17.0003C75.8999 17.0003 77.3271 18.4287 77.3271 20.1935C77.3271 21.9583 75.8948 23.3867 74.1366 23.3867ZM74.1366 13.626C70.5118 13.626 67.5747 16.5656 67.5747 20.1935C67.5747 23.8214 70.5118 26.761 74.1366 26.761C77.7615 26.761 80.6986 23.8214 80.6986 20.1935C80.6986 16.5656 77.7615 13.626 74.1366 13.626Z" fill="white"/>
</g>
<defs>
<clipPath id="clip0_285_1110">
<rect width="95.5238" height="34" fill="white"/>
</clipPath>
</defs>
</svg>

<svg width="96" height="34" fill="none" xmlns="http://www.w3.org/2000/svg"><g clip-path="url(#clip0_285_1110)"><path d="M7.994 13.635v-.906a7.144 7.144 0 00-.951-.067C3.159 12.656 0 15.819 0 19.71a7.048 7.048 0 003.01 5.776 7.023 7.023 0 01-1.893-4.803c0-3.834 3.072-6.96 6.877-7.048z" fill="#25F4EE"/><path d="M8.165 23.903a3.22 3.22 0 003.212-3.1l.005-15.355h2.802a5.49 5.49 0 01-.088-.973H10.27l-.005 15.355a3.22 3.22 0 01-3.212 3.1 3.182 3.182 0 01-1.494-.373 3.197 3.197 0 002.606 1.346zM19.422 10.658v-.854a5.267 5.267 0 01-2.901-.864 5.32 5.32 0 002.9 1.718z" fill="#25F4EE"/><path d="M16.52 8.942a5.294 5.294 0 01-1.307-3.494h-1.024a5.308 5.308 0 002.332 3.494zM7.047 16.486a3.221 3.221 0 00-3.216 3.219c0 1.237.703 2.313 1.727 2.852a3.187 3.187 0 01-.61-1.879 3.221 3.221 0 013.216-3.22c.331 0 .652.058.952.151v-3.913a7.161 7.161 0 00-.952-.067c-.057 0-.108.005-.165.005v3.002a3.24 3.24 0 00-.952-.15z" fill="#FE2C55"/><path d="M19.422 10.66v2.976a9.108 9.108 0 01-5.327-1.713v7.789c0 3.886-3.16 7.054-7.048 7.054-1.5 0-2.895-.476-4.038-1.279a7.035 7.035 0 005.155 2.252c3.884 0 7.048-3.163 7.048-7.054v-7.79a9.108 9.108 0 005.326 1.714v-3.83c-.387 0-.76-.041-1.116-.12z" fill="#FE2C55"/><path d="M14.095 19.712v-7.79a9.108 9.108 0 005.327 1.714V10.66a5.32 5.32 0 01-2.901-1.718 5.352 5.352 0 01-2.338-3.494h-2.802l-.006 15.356a3.22 3.22 0 01-3.21 3.1 3.23 3.23 0 01-2.612-1.34 3.23 3.23 0 01-1.727-2.852 3.221 3.221 0 013.216-3.22c.331 0 .652.058.952.15v-3.001c-3.806.083-6.878 3.209-6.878 7.044 0 1.852.719 3.54 1.893 4.802a7.017 7.017 0 004.038 1.279c3.884 0 7.048-3.168 7.048-7.054zM24.324 10.67h11.96l-1.096 3.426h-3.103V26.76h-3.867V14.096l-3.89.005-.004-3.432zM55.882 10.67h12.24l-1.096 3.426h-3.377V26.76h-3.873V14.096l-3.889.005-.005-3.432zM37.02 15.79h3.832v10.97H37.04l-.021-10.97zM42.376 10.628h3.831v7.494l3.796-3.731h4.57l-4.803 4.663 5.378 7.706h-4.22l-3.588-5.341-1.138 1.102v4.239H42.37V10.628h.006zM82.968 10.628h3.833v7.494l3.795-3.731h4.571l-4.804 4.663 5.378 7.706h-4.214l-3.59-5.341-1.136 1.102v4.239h-3.833V10.628zM38.933 14.537a1.93 1.93 0 10-.002-3.86 1.93 1.93 0 00.002 3.86z" fill="#fff"/><path d="M67.631 20.194a6.567 6.567 0 016.05-6.547 7.102 7.102 0 00-.574-.021 6.564 6.564 0 00-6.562 6.568 6.564 6.564 0 006.562 6.567c.171 0 .404-.01.574-.02a6.57 6.57 0 01-6.05-6.547z" fill="#25F4EE"/><path d="M75.17 13.626c-.175 0-.408.01-.578.02a6.566 6.566 0 016.044 6.547 6.566 6.566 0 01-6.044 6.547c.17.016.403.021.579.021a6.564 6.564 0 006.562-6.567 6.564 6.564 0 00-6.562-6.568z" fill="#FE2C55"/><path d="M74.137 23.387a3.19 3.19 0 01-3.19-3.194 3.19 3.19 0 116.38 0 3.194 3.194 0 01-3.19 3.194zm0-9.761a6.564 6.564 0 00-6.562 6.568 6.564 6.564 0 006.562 6.567 6.564 6.564 0 006.562-6.567 6.564 6.564 0 00-6.562-6.568z" fill="#fff"/></g><defs><clipPath id="clip0_285_1110"><path fill="#fff" d="M0 0h95.524v34H0z"/></clipPath></defs></svg>
